app/assets/images/actions.svg

<svg fill="none" height="10" viewBox="0 0 40 10" width="40" xmlns="http://www.w3.org/2000/svg"><path clip-rule="evenodd" d="m5 0c-2.75 0-5 2.25-5 5s2.25 5 5 5 5-2.25 5-5-2.25-5-5-5zm30 0c-2.75 0-5 2.25-5 5s2.25 5 5 5 5-2.25 5-5-2.25-5-5-5zm-20 5c0-2.75 2.25-5 5-5s5 2.25 5 5-2.25 5-5 5-5-2.25-5-5z" fill="#616161" fill-opacity=".54" fill-rule="evenodd"/></svg>

<svg width="40" height="10" viewBox="0 0 40 10" fill="none" xmlns="http://www.w3.org/2000/svg">
<path fill-rule="evenodd" clip-rule="evenodd" d="M5 0C2.25 0 0 2.25 0 5C0 7.75 2.25 10 5 10C7.75 10 10 7.75 10 5C10 2.25 7.75 0 5 0ZM35 0C32.25 0 30 2.25 30 5C30 7.75 32.25 10 35 10C37.75 10 40 7.75 40 5C40 2.25 37.75 0 35 0ZM15 5C15 2.25 17.25 0 20 0C22.75 0 25 2.25 25 5C25 7.75 22.75 10 20 10C17.25 10 15 7.75 15 5Z" fill="#616161" fill-opacity="0.54"/>
</svg>
